X:1
T:Bolton
T:Bolton
T:William Billings
C:William Billings
%%score [ 1 2 3 4 ]
L:1/8
Q:1/4=120
M:6/8
K:F
V:1 treble nm="Soprano" snm="S"
V:2 treble nm="Alto" snm="A"
V:3 treble-8 nm="Tenor" snm="T"
V:4 bass nm="Bass" snm="B"
V:1
 F | F-Ac B-AG | c(AF) G2 G | A-cd d2 c | c6 | ccc c2 c | (cA)F G2 G | (AF)A (BA)G | A6 | %9
w: Re-|joice, _ the Lord _ is|King! _ _ _ Your|Lord _ and King a-|dore,|Mor- tals, give thanks and|sing, _ _ _ And|tri- * umph ev- * er-|more:|
w: Je-|sus _ the Sa- * viour|reigns, _ _ _ The|God _ of Truth and|Love.|When he had purg'd our|Stains, _ _ _ He|took _ his seat _ a-|bove:|
w: Re-|joice _ in glo- * rious|Hope, _ _ _ Je-|sus _ the Judge shall|come,|And take his Ser- vants|up _ _ _ To|their _ e- ter- * nal|Home:|
 z2 z GAG | A3 BAG | (A3 A3) | z6 | z2 z AGF | G3 FBG | A2 G (AF)A | G2 F F2 c | [Ac]6 |] %18
w: Lift up your|Heart, lift up your|Voice, _||Lift up your|Hearts, lift up your|Voice, Re- joice, _ a-|gain I say, re-|joice.|
w: |||||||||
w: |||||||||
V:2
 C | C2 C FDC | (C3 D2) D | C2 F F2 F | E6 | EEE E2 E | (F C2) D2 D | C2 D D2 C | C6 | z6 | z6 | %11
w: Re-|joice, the Lord _ is|King! _ Your|Lord and King a-|dore,|Mor- tals give thanks and|sing, _ _ And|tri- umph ev- er-|more:|||
w: Je-|sus the Sa- * viour|reigns, _ The|God of Truth and|Love.|When he had purg'd our|Stains, _ _ He|took his seat a-|bove:|||
w: Re-|joice, in glo- * rious|Hope, _ Je-|sus the Judge shall|come,|And take his Ser- vants|up _ _ To|their e- ter- nal|Home:|||
 F3 F2 F | F2 F (GE)C | C3 CCC | D3 z2 z | C3 F2 F | E2 D D2 E | F6 |] %18
w: Re- joice, a-|gain I say, _ re-|joice. Lift up your|Hearts,|Re- joice, a-|gain I say, re-|joice.|
w: |||||||
w: |||||||
V:3
 F | F2 E F2 G | (A2 c) B2 B | A2 F B2 A | G6 | GGG G2 G | (A2 c) B2 B | A2 F (GF)E | F6 | %9
w: Re-|joice, the Lord is|King! _ _ Your|Lord and King a-|dore,|Mor- tals give thanks and|sing, _ _ And|tri- umph ev- * er-|more:|
w: Je-|sus the Sa- viour|reigns, _ _ The|God of Truth and|Love.|When he had purg'd our|Stains, _ _ He|took his seat _ a-|bove:|
w: Re-|joice, in glo- rious|Hope, _ _ Je-|sus the Judge shall|come,|And take his Ser- vants|up _ _ To|their e- ter- * nal|Home:|
 z2 z CFE | F3 GAB | c2 d c2 A | d2 c B2 A | G3 FGA | B3 cde | f2 e (dB)d | (cB)A (BA)G | F6 |] %18
w: Lift up your|Hearts, lift up your|Voice, Re- joice, a-|gain I say, re-|joice. Lift up your|Hearts, lift up your|Voice, Re- joice, _ a-|gain _ I say, _ re-|joice.|
w: |||||||||
w: |||||||||
V:4
 F, | F,2 C, D,2 E, | (F,2 A,) G,2 G, | F,2 D, B,,2 [F,,F,] | C,6 | C,C,C, C,2 C, | %6
w: Re-|joice, the Lord is|King! _ _ Your|Lord and King a-|dore,|Mor- tals give thanks and|
w: Je-|sus the Sa- viour|reigns, _ _ The|God of Truth and|Love.|When he had purg'd our|
w: Re-|joice, in glo- rious|Hope, _ _ Je-|sus the Judge shall|come,|And take his Ser- vants|
 (F,2 A,) G,2 G, | F,2 D, B,,2 C, | [F,,F,]6 | z6 | z6 | [F,,F,]3 [F,,F,]2 [F,,F,] | %12
w: sing, _ _ And|tri- umph ev- er-|more:|||Re- joice, a-|
w: Stains, _ _ He|took his seat a-|bove:||||
w: up _ _ To|their e- ter- nal|Home:||||
 [B,,B,]2 [A,,A,] [G,,G,]2 [F,,F,] | C,3 [F,,F,][E,,E,][F,,F,] | [G,,G,]3 [A,,A,][B,,B,][C,C] | %15
w: gain I say, re-|joice. Lift up your|Hearts, lift up your|
w: |||
w: |||
 [F,,F,]2 C, [F,,F,]2 [F,,F,] | C,2 D, B,,2 C, | [F,,F,]6 |] %18
w: Voice, Re- joice, a-|gain I say, re-|joice.|
w: |||
w: |||

